!!!!SEGMENT: pl-kk--kk-i-88--003-005_golabek-jakub--missa-3-sanctus.krn
!!!cenid: 17xx:2586
!!!COM: Gołąbek, Jakub
!!!COM-rismID: pe30008748
!!!CDT: 1739-1789/03/30
!!!CNT: Polish
!!!OPR: Missa 3
!!!OTL: Sanctus
!!!OMV: 005
!!!PDT:
!!!AGN: Sacred; Mass
!!!YEC: Copyright 2022 Narodowy Instytut Fryderyka Chopina (https://polishscores.org)
!!!YEM: License CC-BY-4.0 (https://creativecommons.org/licenses/by/4.0)
!!!SMS-siglum: PL-Kk
!!!SMS-shelfmark: Kk.I.88
!!!SMS-variant:
!!!SMS-altvar:
!!!SMS-shelfwork: 003-005 M
!!!NIFC-rismSourceID: 1001164072
!!!NIFC-rismChildID: 1001164082
!!!NIFC-islandoraID:
!!!URL-pdf-islandora: https://repozytorium.nifc.pl/islandora/object/pl-kk%3A3086/datastream/PDF/view
!!!URL-scan: https://polish.musicsources.pl/pl/lokalizacje/galeria/rekopisy/6148-missa/4 @EN{Scan on Polish Music Sources Website} @PL{Skany w portalu Dziedzictwo Muzyki Polskiej w otwartym dostępie}
!!!IIIF:
!!!ONB-nifc: UWAGA: C - f. 6r-7v; A - f. 14r-15v; T - f. 22r-23v; B - f. 30r-31v; B rip - f. 35r-36v. Proszę uwzględniać B rip. Części Mszy: 1. Kyrie, 2. Christe, 3. Et in terra, 4. Quoniam, 5. Sanctus, 6. Osanna, 7. Benedictus, 8. Agnus Dei.
!!!OMD:
!!!AIN: 1 alto 2 bass 1 canto 1 tenor
!!!key: C
**kern	**text	**kern	**text	**kern	**text	**kern	**text	**kern	**text
*part5	*part5	*part4	*part4	*part3	*part3	*part2	*part2	*part1	*part1
*staff5	*staff5	*staff4	*staff4	*staff3	*staff3	*staff2	*staff2	*staff1	*staff1
*I"Baſso E ripieno	*	*I"Baſso	*	*I"Tenore	*	*I"Alto	*	*I"Canto	*
*I'B rip	*	*I'B	*	*I'T	*	*I'A	*	*I'S	*
*Ibass	*	*Ibass	*	*Itenor	*	*Ialto	*	*Icanto	*
*ICvox	*	*ICvox	*	*ICvox	*	*ICvox	*	*ICvox	*
*clefF4	*	*clefF4	*	*clefC4	*	*clefC3	*	*clefC1	*
*k[]	*	*k[]	*	*k[]	*	*k[]	*	*k[]	*
*C:	*	*C:	*	*C:	*	*C:	*	*C:	*
*M3/2	*	*M3/2	*	*M3/2	*	*M3/2	*	*M3/2	*
=1	=1	=1	=1	=1	=1	=1	=1	=1	=1
4C/	San-	4C/	San-	1.G	San-	1.e	San-	1.cc	San-
4BB/	.	4BB/	.	.	.	.	.	.	.
4C/	.	4C/	.	.	.	.	.	.	.
4D/	.	4D/	.	.	.	.	.	.	.
4E\	.	4E\	.	.	.	.	.	.	.
4F\	.	4F\	.	.	.	.	.	.	.
=2	=2	=2	=2	=2	=2	=2	=2	=2	=2
4G\	.	4G\	.	4B\	.	1.d	.	1.b	.
4F#X\	.	4F#X\	.	4A\	.	.	.	.	.
4G\	.	4G\	.	4B\	.	.	.	.	.
4A\	.	4A\	.	4c\	.	.	.	.	.
4B\	.	4B\	.	4d\	.	.	.	.	.
4G\	.	4G\	.	4B\	.	.	.	.	.
=3	=3	=3	=3	=3	=3	=3	=3	=3	=3
*	*	*	*	*	*	*2\right	*	*	*
4c\	.	4c\	.	4e\	.	2.g\	.	1.cc	.
4B\	.	4B\	.	4d\	.	.	.	.	.
4c\	.	4c\	.	4e\	.	.	.	.	.
4A\	.	4A\	.	4c\	.	4f#X\	.	.	.
4G\	.	4G\	.	4B\	.	4g\	.	.	.
4F#X\	.	4F#X\	.	4A\	.	4a\	.	.	.
=4	=4	=4	=4	=4	=4	=4	=4	=4	=4
1G	-ctus	1G	-ctus	1B	-ctus	1g	-ctus	1dd	-ctus
2r	.	2r	.	2r	.	2r	.	2r	.
=5	=5	=5	=5	=5	=5	=5	=5	=5	=5
4B\	San-	4B\	San-	4d\	San-	2g\	San-	1.dd	San-
4A\	.	4A\	.	4c\	.	.	.	.	.
4G\	.	4G\	.	4B\	.	1fn	.	.	.
4A\	.	4A\	.	4c\	.	.	.	.	.
4B\	.	4B\	.	4d\	.	.	.	.	.
4G\	.	4G\	.	4B\	.	.	.	.	.
!	!	!LO:LB:g=original	!	!	!	!	!	!	!
=6	=6	=6	=6	=6	=6	=6	=6	=6	=6
4c\	.	4c\	.	4c\	.	2g\	.	4ee\	.
4G\	.	4G\	.	4B\	.	.	.	4dd\	.
4E\	.	4E\	.	2G/	.	4g\	.	4cc\	.
4D\	.	4D\	.	.	.	4f\	.	4b\	.
*	*	*	*	*	*	*	*	*2\right	*
2C/	-ctus	2C/	-ctus	2G/	-ctus	2e\	-ctus	2cc\	-ctus
!	!	!	!	!LO:LB:g=original	!	!	!	!	!
=7	=7	=7	=7	=7	=7	=7	=7	=7	=7
1F	San-	1F	San-	1.c	San-	1.a	San-	1cc	San-
*2\right	*	*2\right	*	*	*	*	*	*	*
2F#X\	.	2F#X\	.	.	.	.	.	2dd\	.
!LO:LB:g=original	!	!	!	!	!	!	!	!	!
=8	=8	=8	=8	=8	=8	=8	=8	=8	=8
*	*	*	*	*2\right	*	*	*	*	*
2G\	.	2G\	.	2B\	.	1g	-ctus	2dd\	.
2G\	-ctus	2G\	-ctus	2B\	-ctus	.	.	2dd\	-ctus
2r	.	2r	.	2r	.	2r	.	2r	.
!	!	!	!	!	!	!LO:LB:g=original	!	!LO:LB:g=original	!
=9	=9	=9	=9	=9	=9	=9	=9	=9	=9
4B\	Do-	4B\	Do-	4d\	Do-	2.g\	D0-	2.dd\	Do-
4G\	.	4G\	.	4B\	.	.	.	.	.
4A\	.	4A\	.	4c\	.	.	.	.	.
4B\	-mi-	4B\	-mi-	4d\	-mi-	4g\	-mi-	4dd\	-mi-
2c\	-nus	2c\	-nus	2e\	-nus	2g\	-nus	2cc\	-nus
=10	=10	=10	=10	=10	=10	=10	=10	=10	=10
2G\	De-	2G\	De-	2e\	De-	2e\	De-	2cc\	De-
2F\	.	2F\	-us-	2d\	.	2f\	.	2dd\	.
2E\	-us	2E\	-us	2c\	-us	2g\	-us	2cc\	-us
=11	=11	=11	=11	=11	=11	=11	=11	=11	=11
2F\	Sa-	2F\	Sa-	2A/	Sa-	2f\	Sa-	2dd\	Sa-
2G\	.	2G\	-ba-	2G/	.	2e\	.	2cc\	.
2GG/	-ba-	2GG/	-ba-	2G/	-ba-	2d\	-ba-	2b\	-ba-
=12	=12	=12	=12	=12	=12	=12	=12	=12	=12
1C	-oth	1C	-oth	1G	-oth	1e	-oth	1cc	-oth
2r	.	2r	.	2r	.	2r	.	2r	.
=13	=13	=13	=13	=13	=13	=13	=13	=13	=13
4B\	Do-	4B\	Do-	4d\	Do-	2.g\	Do-	2.dd\	Do-
4G\	.	4G\	.	4B\	.	.	.	.	.
4A\	.	4A\	.	4c\	.	.	.	.	.
4B\	-mi-	4B\	-mi-	4d\	-mi-	4g\	-mi-	4dd\	-mi-
2c\	-nus	2c\	-nus	2e\	-nus	2g\	-nus	2cc\	-nus
!	!	!LO:LB:g=original	!	!LO:LB:g=original	!	!	!	!	!
=14	=14	=14	=14	=14	=14	=14	=14	=14	=14
2G\	De-	2G\	De-	2e\	De-	2e\	De-	2cc\	De-
2F\	.	2F\	.	2d\	.	2f\	.	2dd\	.
2E\	-us	2E\	-us	2c\	-us	2g\	-us	2cc\	-us
=15	=15	=15	=15	=15	=15	=15	=15	=15	=15
2F\	Sa-	2F\	Sa-	2A/	Sa-	2f\	Sa-	2dd\	Sa-
2G\	.	2G\	.	2G/	.	2e\	.	2cc\	.
2GG/	-ba-	2GG/	-ba-	2G/	-ba-	2d\	-ba-	2b\	-ba-
=16	=16	=16	=16	=16	=16	=16	=16	=16	=16
1C/	-oth	2C/	-oth	2G/	-oth	2e\	-oth	2cc\	-oth
.	.	2r	.	2r	.	4f\	Ple-	2r	.
.	.	.	.	.	.	4e\	.	.	.
!	!	!	!	!	!	!LO:LB:g=original	!	!	!
=-	=-	=-	=-	=-	=-	=-	=-	=-	=-
2r	.	2r	.	2r	.	4d\	-ni-	2r	.
.	.	.	.	.	.	4c\	-sunt	.	.
!	!	!	!	!	!	!	!	!LO:LB:g=original	!
=17	=17	=17	=17	=17	=17	=17	=17	=17	=17
2r	.	2r	.	2r	.	2g\	cae-	2r	.
4d\	Ple-	4d\	Ple-	4f\	Ple-	2g\	-li	4b\	Ple-
4c\	.	4c\	.	4e\	.	.	.	4cc\	.
4B\	-ni-	4B\	-ni-	4d\	-ni-	2f\	sunt	4dd\	-ni-
4G\	-sunt	4G\	-sunt	4B\	-sunt	.	.	4dd\	-sunt
!LO:LB:g=original	!	!	!	!	!	!	!	!	!
=18	=18	=18	=18	=18	=18	=18	=18	=18	=18
2c\	cae-	2c\	cae-	2G/	cae-	2e\	cae-	2cc\	cae-
4C/	-li	4C/	-li	2G/	-li	4e\	-li	4ee\	-li
4D/	.	4D/	.	.	.	4f\	.	4dd\	.
4E\	et	4E\	et	4c\	et	4g\	et	4cc\	et
4F\	.	4F\	.	8B\L	.	4a\	.	4dd\	.
.	.	.	.	8A\J	.	.	.	.	.
=19	=19	=19	=19	=19	=19	=19	=19	=19	=19
2G\	ter-	2G\	ter-	2G/	ter-	2g\	ter-	2cc\	ter-
2G\	-ra	2G\	-ra	2G/	-ra	2g\	-ra	2b\	-ra
2r	.	2r	.	2r	.	2r	.	2r	.
=20	=20	=20	=20	=20	=20	=20	=20	=20	=20
4G\	glo-	4G\	glo-	4B\	glo-	4f\	glo-	4dd\	glo-
4A\	.	4A\	.	4c\	.	4e\	.	4cc\	.
4B\	.	4B\	.	4d\	.	4d\	.	4b\	.
4A\	.	4A\	.	4c\	.	4e\	.	4cc\	.
!	!	!	!	!LO:LB:g=original	!	!	!	!	!
=-	=-	=-	=-	=-	=-	=-	=-	=-	=-
4G\	.	4G\	.	4B\	.	4f\	.	4dd\	.
4B\	.	4B\	.	4d\	.	4d\	.	4b\	.
=21	=21	=21	=21	=21	=21	=21	=21	=21	=21
2c\	.	2c\	.	2G/	.	2e\	.	2cc\	.
2G\	-ri-	2G\	-ri-	2B\	-ri-	2f\	-ri-	2dd\	-ri-
2E\	-a	2E\	-a	2c\	-a	2g\	-a	2ee\	-a
!	!	!LO:LB:g=original	!	!	!	!	!	!	!
=22	=22	=22	=22	=22	=22	=22	=22	=22	=22
2F\	tu-	2F\	tu-	2A/	tu-	4a\	tu-	4ff\	tu-
.	.	.	.	.	.	4f\	.	4dd\	.
2G\	.	2G\	.	1G	.	2e\	.	2cc\	.
2GG/	.	2GG/	.	.	.	2d\	.	2b\	.
!	!	!	!	!	!	!LO:LB:g=original	!	!	!
=23	=23	=23	=23	=23	=23	=23	=23	=23	=23
1C	-a	1C	-a	1G	-a	1e	-a	1cc	-a
2r	.	2r	.	2r	.	2r	.	2r	.
!	!	!	!	!	!	!	!	!LO:LB:g=original	!
=24	=24	=24	=24	=24	=24	=24	=24	=24	=24
4B\	glo-	4B\	glo-	4d\	glo-	4d\	glo-	4b\	glo-
4A\	.	4A\	.	4c\	.	4e\	.	4cc\	.
4G\	.	4G\	.	4B\	.	4f\	.	4dd\	.
4A\	.	4A\	.	4c\	.	4e\	.	4cc\	.
4B\	.	4B\	.	4d\	.	4d\	.	4b\	.
4G\	.	4G\	.	4B\	.	4f\	.	4dd\	.
=25	=25	=25	=25	=25	=25	=25	=25	=25	=25
2C/	.	2C/	.	2G/	.	2g\	.	2ee\	.
2D/	-ri-	2D/	-ri-	2G/	-ri-	2f\	-ri-	2dd\	-ri-
2E\	-a	2E\	-a	2G/	-a	2e\	-a	2cc\	-a
=26	=26	=26	=26	=26	=26	=26	=26	=26	=26
2F\	tu-	2F\	tu-	2A/	tu-	2f\	tu-	2dd\	tu-
2G\	.	2G\	.	1G	.	2e\	.	2cc\	.
2GG/	.	2GG/	.	.	.	2d\	.	2b\	.
=27	=27	=27	=27	=27	=27	=27	=27	=27	=27
1C	-a	1C	-a	1.G	-a	1e	-a	1cc	-a
2r	.	2r	.	.	.	2r	.	2r	.
!LO:PB:g=original	!	!LO:LB:g=original	!	!LO:LB:g=original	!	!LO:LB:g=original	!	!LO:LB:g=original	!
==;;	==	==;;	==	==;;	==	==;;	==	==;;	==
*-	*-	*-	*-	*-	*-	*-	*-	*-	*-
!!!system-decoration: [(s1,s2,s3,s4)]s5
!!!ENC: Berenika Jozajtis
!!!END: 2024-02-28
!!!EED: Marta Chmielewska
!!!EEV: 2024-05-04
